X: 014
M: 6/8
L: 1/8
K: G
c2c cdc | B2c d2d | A2B !+!B3 | A3 :|\
|: A2!f!A | !+!A2G A2B | G2G GFE |\

